X:1
T:Frisque et gaillard
T:Jean de Castro
T:Source : Livre de chansons à 3 parties---Paris---A.le Roy & R.Ballard---1575. Editor : André Vierendeels (01/10/15).
T:Notes : Original clefs : G2, C1n C3 Editorial accidentals above the staff
T:Frisque et gaillard
C:Jean de Castro
%%score [ 1 2 3 ]
L:1/8
Q:1/4=96
M:2/2
K:C
V:1 treble nm="Superius" snm="S"
V:2 treble nm="Altus" snm="A"
V:3 treble-8 nm="Tenor" snm="T"
V:1
 G4 G2 G2 | c6 B2 | A2 G2 d2 e2 | d2 c3 B/A/ B2 | c2 G2 G2 G2 | c6 e2 | e2 g2 f2 e2 | d3 c BA B2 | %8
w: Fris- qu'et gail-|ard, un|jour en- tre cent-|mil- * * * *|le, un jour en-|tre cent-|mil- * * *||
 c4 z2 c2 | d4 e4 | ^f2 g2 f4 |"^-natural" g2 fe d4 | z2 g2 g3 f | e4 z2 c2 | c3 B A2 A2 | %15
w: le, un|jour en-|tre cent- mil-|* * * le,|je m'en- tre-|mis, je|m'en- tre- mis de|
 f2 e2 d2 c2 | B2 c3 B/A/ B2 | c2 G2 G2 G2 | c6 B2 | A2 G2 d2 e2 | d2 c3 B/A/ B2 | c2 G2 G2 G2 | %22
w: fai- re'am- ple'ou- ver-|tu- * * * *|re au ca- bi-|net d'u-|ne mi- gno- ne|fil- * * * *|le, au ca- bi-|
 c6 e2 | e2 g2 f2 e2 | d3 c BA B2 | c4 z2 c2 | d4 e4 | ^f2 g2 f4 |"^-natural" g2 fe d4 | %29
w: net d'u-|ne mi- gno- ne|fil- * * * *|e, d'u-|ne mi-|gno- ne fil-|* * * le,|
 z2 g2 g3 f | e4 z2 c2 | c3 B A2 A2 | f2 e2 d2 c2 | B2 c3 B/A/ B2 | c8- | c4 c4 | e2 d2 e2 f2 | %37
w: pour ac- com-|plir, pour|ac- com- plir les|oeu- vres de na-|tu- * * * *|re,|_ la|fil- le me re-|
 g8 | z4 g4 | f2 e2 e2 d2 | e4 g4 | c2 d2 e4 | z2 g4 f2- | f2 e2 d4 | z2 d2 c2 B2 | c4 A4 | %46
w: pond:|"Tel|est mon a- pe-|tit, mais,|mon a- my,|mais mon|_ a- my,|mais mon a-|my je|
 G2 g4 f2- | f2 e2 d4 | z2 d2 G2 A2 | B2 c2 d2 A2 | B2 c2 c2 B2 | c8- | c8 | z4 d4 | d2 B2 A2 A2 | %55
w: crain, mais mon|_ a- my,|mais mon a-|my je crain de|l'a- voir trop pe-|tit",|_|quand|el- le le sen-|
 G4 z2 g2 | e2 e2 e2 d2 | c4 d4 | z2 f2 f2 d2 | c2 c2 d4 | egee d2 c2 | B2 A2 G4 | z8 | %63
w: tit, s'e-|cri- a: "no- stre|da- me",|s'e- cri- a:|"no- stre da-|me, et tost,- tost, tost, des-|pe- chez vous,||
 d2 cc B2 B2 | A2 A2 G2 c2- | c2 B2 z2 A2 | e4 z2 d2 | g4 z2 c2 | f4 z2 d2 | d4 c2 B2 | A4 G4 | %71
w: et tost, et tost des-|pe- chez vous, car|_ je, car|je, car|je, car|je, car|je me pas-|me, me|
 A8 | B4 z4 |] %73
w: pas-|me."|
V:2
 z4 C4 | C2 C2 F4- | F2 E2 D2 C2 | G2 E2 D4 | E4 C4 | C2 C2 c4- | c2 B2 A2 G2 | F2 E2 D4 | %8
w: Fris-|qu'et gail- lard,|_ un jour en-|tre cent- mil-|le, un|jour en- tre|_ cent- mil- *||
 C4 z2 G2 | A2 B2 c3 B | A2 G2 A4 | B2 G2 G3 F | E4 z2 G2 | G3 F E4 | z2 c2 c3 B | A2 G2 F2 E2 | %16
w: le, un|jour en- tre cent-|mil- * *|le, je m'en- tre-|mis, je|m'en- tre- mis,|je m'en- tre-|mis de fai- re'am-|
 D2 C2 D4 | E4 z2 C2 | C2 C2 F4- | F2 E2 D2 C2 | G2 E2 D4 | E4 C4 | C2 C2 c4- | c2 B2 A2 G2 | %24
w: ple'ou- ver- tu-|re au|ca- bi- net|_ d'u- ne mi-|gno- ne fil-|le, au|ca- bi- net|_ d'u- ne mi-|
 F2 E2 D4 | C4 z2 G2 | A2 B2 c3 B | A2 G2 A4 | B2 G2 G3 F | E4 z2 G2 | G3 F E4 | z2 c2 c3 B | %32
w: gno- ne fil-|le, d'u-|ne mi- gno- *|* ne fil-|le, pour ac- com-|plir, pour|ac- com- plir|les oeu- vres|
 A2 G2 F2 E2 | D2 C2 D4 | A4 z2 G2 | A2 G2 A2 B2 | c6 BA | G4 c4 | B4 z2 G2 | A2 B2 c2 A2 | G8 | %41
w: de na- tu- *||re, la|fil- le me re-|pond: _ _|_ _|* "Tel|est mon a- pe-|tit,|
 z4 c4 | G2 G2 A4 | c4 B4 | z4 G4 | C2 C2 D4 | z2 G2 A4 | z2 c4 B2 | A2 G4 F2 | E4 F4 | %50
w: mais,|mon a- my,|je crain,|mais,|mon a- my,|je crain,|mais, mon|a- my, je|crain, de|
 D2 C2 D2 D2 | E4 z2 G2 | A4 G4 | A2 c3 B/A/ B2 |"^#""^#" A2 G3 F/E/ F2 | E8 | z4 G4 | %57
w: l'a- voir trop pe-|tit", quand|el- le|le sen- * * *||tit,|s'e-|
 A2 c2 c2 B2 | A4 D2 A2- | A2 c2 B4 | cGAc B2 A2 | G2 F2 E4 | C2 GG F2 E2 | D2 A2 D2 D2 | %64
w: cri- a: "nos- tre|da- me, no-|* stre da-|me, et tost, tost, tost, des-|pe- chez vous,|et tost, et tost, tost,|tost, de- pe- chez|
 F4 z2 E2 | G4 z2 F2 | E2 c2 B4 | c2 G2 A4- | A4 _B4 | A6 G2 | ^F4 G4- |"^#""^#" G2 FE F4 | %72
w: vous, car|je, car|je me pas-|me, me pas-|* me,|car je|me pas-||
 G4 z4 |] %73
w: me."-|
V:3
 z8 | z8 | z8 | G4 G2 G2 | c6 B2 | A3 G F2 c2 | A2 G2 z4 | z2 G2 G2 G2 | g6 e2 | d4 c4 | d2 e2 d4 | %11
w: |||Fris- qu'et gail-|lard, un|jour en- trr cent-|mil- le,|fris- qu'et gail-|lard, un|jour en-|tre cent- mil-|
 G4 z2 g2 | g3 f e4 | z2 c2 c3 B | A3 G F2 F2 | z4 z2 c2 | G2 A2 G4 | c8 | z8 | z8 | G4 G2 G2 | %21
w: le, je|m'en- tre- mis,|je m'en- tre-|mis de fai- re|am-|ple'ou- ver- tu-|re|||au ca- bi-|
 c6 B2 | A3 G F2 c2 | A2 G2 z4 | z2 G2 G2 G2 | g6 e2 | d4 c4 | d2 e2 d4 | G4 z2 g2 | g3 f e4 | %30
w: net d'u-|ne mi- gno- ne|fil- le,|au ca- bi-|net d'u-|ne mi-|gno- ne fil-|le, pour|a- com- plir,|
 z2 c2 c3 B | A3 G F2 F2 | z4 z2 c2 | G2 A2 G2 G2 | F4 c4 | z8 | z4 c4 | e2 d2 e2 f2 | g6 e2 | %39
w: pour a- com-|plir le oeu- vres,|les|oeu- vres de na-|tu- re,||la|fil- le me re-|pond: "Tel|
 f2 g2 a2 f2 | e8 | z8 | z8 | z4 g4 | c2 d2 e4 | z2 g4 f2- | f2 e2 d4 | c4 G4 | z8 | z4 z2 F2 | %50
w: est mon a- pe-|tit,|||mais,|mon a- my,|mais, mon|_ a- my|je crain,||de|
 G2 A2 G2 G2 | c4 z2 c2 | f4 e4 | f4 g4 | d8 | z4 c4 | c2 c2 c2 B2 | A4 G2 G2 | F2 F2 f4- | %59
w: l'a- voir trop pe-|tit", quand|el- le|le sen-|tit,|s'e-|cri- a: "no- stre|da- me", s'e-|cri- a "no|
 f2 a2 g4 | c4 z4 | z8 | g2 ee d2 c2 | B2 A2 G4 | z2 F2 c4 |"^-natural" z2 G2 d4 | z2 c2 g4 | %67
w: _ stre da-|me,||et tost, et tost, des-|pe- chez vous,|car je,|car je,|car je|
 z2 e2 f4- | f4 _B4 | d8- | d8- | d8 | G4 z4 |] %73
w: car je|_ me|pas-|||me."|

